X:1
T:Lost and Found
T:Lost and Found
T:Carl Fischer
T:John Henry Sammis, 1909
T:Public Domain Courtesy of the Cyber Hymnal™
C:Carl Fischer
Z:Public Domain
Z:Courtesy of the Cyber Hymnal™
%%score ( 1 2 ) ( 3 4 )
L:1/8
Q:1/4=103
M:4/4
K:G
V:1 treble 
V:2 treble 
V:3 bass 
V:4 bass 
V:1
 [B,D][B,D][A,^C][B,D] [=CE]2 [CG]2 | [B,G]4 [B,D]4 | [DB][DB][^C^A][DB] [E=c]2 [DB]2 | [CE]6 z2 | %4
w: 1.~What were we when mer- cy|found us?|Cap- tives un- to death and|sin;|
w: 2~What are we since mer- cy|found us?|Blame- less, spot- less in His|sight;|
w: 3.~What we shall be? That’s a|sto- ry|Ne- ver ut- tered, or ex-|pressed;|
 [CA][CA][B,^G][CA] [DB]2 [DA]2 | [Dd]4 [DG]4 | [DF][DF][DA][DB] [DF]2 [^CE]2 | D6 z2 || %8
w: Clouds and dark- ness closed a-|round us,|All was hope- less night with-|in.|
w: Sons and saints His Word has|crowned us,|Called to walk with Him in|light.|
w: We shall see Him in His|glo- ry,|And be fold- ed to His|breast.|
"^Refrain" [Gd]2 [Gd]2 [Gd]3 [GB] | [Ge]2 [Gd]2 (BA) [DG]2 | [Gd]2 [Gd]2 [Gd]3 [GB] | %11
w: |||
w: We were lost, but|Je- sus found * us,|Burst the bonds of|
w: |||
 [Ge]2 (dB) [GB]2 [FA]2 | [GB]2 [GB]2 [GB]3 G | [EA]2 [EG]2 ([EG]>[DF]) [CE]2 | %14
w: |||
w: death that * bound us,|Wrapped the robe of|grace a- round * us,|
w: |||
 [B,D][B,D][B,D][DB] [DB]2 ([CA]>[DB]) | [DA]4 [DG]4 |] %16
w: ||
w: And the heirs of glo- ry *|crowned us.|
w: ||
V:2
 x8 | x8 | x8 | x8 | x8 | x8 | x8 | D6 x2 || x8 | x4 G2 x2 | x8 | x2 G2 x4 | x7 G | x8 | x8 | x8 |] %16
V:3
 [G,,G,][G,,G,][G,,G,][G,,G,] [C,G,]2 [C,E,]2 | [G,,D,]4 [G,,G,]4 | %2
 [G,,G,][G,,G,][G,,G,][G,,G,] [G,,G,]2 [G,,G,]2 | [C,G,]6 z2 | %4
 [D,F,][D,F,][D,^E,][D,F,] [D,F,]2 [C,F,]2 | [B,,G,]4 [B,,G,]4 | %6
 [A,,A,][A,,A,][A,,F,][A,,G,] [A,,A,]2 [A,,G,]2 | [D,F,]6 z2 || [G,B,]2 [G,B,]2 [G,B,]3 [G,D] | %9
 [G,C]2 [G,B,]2 (DC) [G,B,]2 | [G,B,]2 [G,B,]2 [G,B,]3 [G,D] | [G,C]2 (B,D) [D,D]2 [D,D]2 | %12
 [G,D]2 [G,D]2 [G,D]3 [G,B,] | [C,C]2 [C,C]2 [C,C]2 [C,G,]2 | %14
 [D,G,][D,G,][D,G,][D,G,] [D,G,]2 [D,F,]2 | [D,C]4 [G,,B,]4 |] %16
V:4
 x8 | x8 | x8 | x8 | x8 | x8 | x8 | x8 || x8 | x4 G,2 x2 | x8 | x2 G,2 x4 | x8 | x8 | x8 | x8 |] %16

